X:1
T:Bettever’s Chant, LM
T:Benjamin H. Everett, 1871
T:Bettever’s Chant, LM
T:Public Domain
C:Benjamin H. Everett, 1871
Z:Public Domain
%%score ( 1 2 ) ( 3 4 )
L:1/8
M:3/2
K:F
V:1 treble 
V:2 treble 
V:3 bass 
V:4 bass 
V:1
 (F2 G2) | [FA]3 [FA] [FA]2 [FA]2 [CG]2 [DF]2 | [EG]6 [EG]2 [EG]2 [FA]2 | [FB]6 [GB]2 [FA]2 [EG]2 | %4
 [FA]8 [FA]2 [GB]2 | [Ac]3 [Ac] [Ac]2 [Bd]2 [Ac]2 [FA]2 | [Ac]6 [Fd]2 [Fc]2 [FA]2 | %7
 [EG]2 F2 [EG]4 [EG]4 | [FA]8 |] %9
V:2
 F4 | x12 | x12 | x12 | x12 | x12 | x12 | x2 F2 x8 | x8 |] %9
V:3
 A,2 B,2 | [F,C]3 [F,C] [F,C]2 [F,C]2 [E,C]2 [D,A,]2 | [C,C]6 [C,C]2 [C,C]2 [F,C]2 | %3
 [B,,D]6 [B,,D]2 [C,C]2 [C,C]2 | [F,C]8 F,4 | F,3 F, F,2 F,2 F,2 F,2 | F,6 B,2 [A,C]2 [F,C]2 | %7
 [C,C]2 [D,A,]2 [C,C]4 [C,C]4 | [F,,F,C]8 |] %9
V:4
 F,4 | x12 | x12 | x12 | x8 F,4 | F,3 F, F,2 F,2 F,2 F,2 | F,6 B,2 x4 | x12 | x8 |] %9

